twotone/svg/insert_chart_outlined.svg

<svg xmlns="http://www.w3.org/2000/svg" width="24" height="24"><path fill="none" d="M0 0h24v24H0V0z"/><g fill="currentColor"><path d="M9 17H7v-7h2v7zm4 0h-2V7h2v10zm4 0h-2v-4h2v4zm2 2H5V5h14v14zm0-16H5c-1.1 0-2 .9-2 2v14c0 1.1.9 2 2 2h14c1.1 0 2-.9 2-2V5c0-1.1-.9-2-2-2z"/></g></svg>

<?xml version="1.0" encoding="utf-8"?>
<!-- Generator: Adobe Illustrator 19.1.0, SVG Export Plug-In . SVG Version: 6.00 Build 0)  -->
<svg version="1.1" xmlns="http://www.w3.org/2000/svg" xmlns:xlink="http://www.w3.org/1999/xlink" x="0px" y="0px" width="24px"
	 height="24px" viewBox="0 0 24 24" enable-background="new 0 0 24 24" xml:space="preserve">
<g id="Bounding_Boxes">
	<g id="ui_x5F_spec_x5F_header_copy_3">
	</g>
	<path fill="none" d="M0,0h24v24H0V0z"/>
</g>
<g id="Duotone" fill="currentColor">
	<g id="ui_x5F_spec_x5F_header_copy_2">
	</g>
	<path d="M9,17H7v-7h2V17z M13,17h-2V7h2V17z M17,17h-2v-4h2V17z M19,19H5V5h14V19z M19,3H5C3.9,3,3,3.9,3,5v14c0,1.1,0.9,2,2,2h14
		c1.1,0,2-0.9,2-2V5C21,3.9,20.1,3,19,3z"/>
</g>
</svg>
